docs/images/info/6.svg

<svg width="82" height="88" viewBox="0 0 82 88" fill="none" xmlns="http://www.w3.org/2000/svg">
<g clip-path="url(#clip0_475_14057)">
<path d="M11.6261 38.633C5.2186 38.633 0 44.4364 0 51.5566C0 58.6769 5.2186 64.4802 11.6261 64.4802H70.3122C70.5747 64.5568 71.2694 65.3684 71.2694 66.7771C71.2694 68.1858 70.5747 68.9821 70.3431 69.074H34.5539C28.1465 69.074 22.9279 74.8773 22.9279 81.9823V87.9694L33.643 87.9847V81.9823C33.643 80.5888 34.3378 79.7773 34.5694 79.7007H70.3585C76.766 79.7007 82 73.8973 82 66.7771C82 59.6569 76.7814 53.8535 70.3585 53.8535H11.6724C11.3945 53.7616 10.7151 52.9501 10.7151 51.5566C10.7151 50.1632 11.3945 49.3517 11.6261 49.2598H70.3585C76.766 49.2598 82 43.4564 82 36.3362C82 29.2159 76.7814 23.4126 70.3585 23.4126H11.6724C11.3945 23.3207 10.7151 22.5091 10.7151 21.1157C10.7151 19.7223 11.3945 18.9107 11.6261 18.8189H45.0375C51.4449 18.8189 56.679 13.0155 56.679 5.89525V0H45.9638V5.89525C45.9638 7.28867 45.2691 8.10023 45.0375 8.1921H11.6261C5.2186 8.1921 0 13.9955 0 21.1157C0 28.2359 5.2186 34.0393 11.6261 34.0393H70.3122C70.5747 34.1312 71.2694 34.9428 71.2694 36.3362C71.2694 37.7296 70.5747 38.5411 70.3431 38.633H11.6261Z" fill="#2B3B46"/>
</g>
<defs>
<clipPath id="clip0_475_14057">
<rect width="82" height="88" fill="white"/>
</clipPath>
</defs>
</svg>

<svg xmlns="http://www.w3.org/2000/svg" width="82" height="88" fill="none"><g clip-path="url(#a)"><path fill="#2B3B46" d="M11.626 38.633C5.22 38.633 0 44.436 0 51.557S5.219 64.48 11.626 64.48h58.686c.263.077.957.888.957 2.297s-.694 2.205-.926 2.297h-35.79c-6.406 0-11.625 5.803-11.625 12.908v5.987l10.715.016v-6.003c0-1.393.695-2.205.926-2.281h35.79C76.766 79.7 82 73.897 82 66.777s-5.219-12.924-11.641-12.924H11.672c-.277-.091-.957-.903-.957-2.296 0-1.394.68-2.205.911-2.297H70.36c6.406 0 11.64-5.804 11.64-12.924s-5.219-12.923-11.641-12.923H11.672c-.277-.092-.957-.904-.957-2.297s.68-2.205.911-2.297h33.412c6.407 0 11.641-5.803 11.641-12.924V0H45.964v5.895c0 1.394-.695 2.205-.926 2.297H11.626C5.22 8.192 0 13.996 0 21.116s5.219 12.923 11.626 12.923h58.686c.263.092.957.904.957 2.297s-.694 2.205-.926 2.297z"/></g><defs><clipPath id="a"><path fill="#fff" d="M0 0h82v88H0z"/></clipPath></defs></svg>
